X: 97
T: Pollonesse #97
M: 3/4
L: 1/16
R: Pollonesse
K: Bb
Q: 110
B2FB d2d2 d4|d2Bd f2f2 f4|b2bf d2df B2Bd|c3B ABcA F4|
B2FB d2d2 d4|d2Bd f2f2 f4|b2ba g2gb a2gf|cf=eg f8:|
f2fa g2gf e2ed cdef g2e2 edcB|c2eg f2fe d2dc|Bcde f2e2 dcBA|
B2FB d2d2 d4|d2Bd f2f2 f4|b2bf g2ge d2cB|FBAc B8:|
N: Jämför nr. 26

